assets/images/card-icons/discover.svg

<svg xmlns="http://www.w3.org/2000/svg" width="26" height="16"><rect width="26" height="16" rx="2" ry="2" fill="#f19e0c"/><path d="M21.64 8.23h-.19V7.18h.19a.5.5 0 01.59.39.37.37 0 010 .11.53.53 0 01-.47.56zm1.27-.58a1 1 0 00-.93-1 .86.86 0 00-.23 0h-.94v3.45h.64V8.7h.07l.86 1.4h.79l-1-1.45a.93.93 0 00.75-1zM18.6 10.1h1.8v-.59h-1.16v-.93h1.12V8h-1.12v-.78h1.16v-.58h-1.8v3.46zM16.73 9l-.86-2.33h-.68l1.39 3.53h.33l1.39-3.56h-.67L16.73 9zm-7.61-.61a1.75 1.75 0 001.69 1.79 2.15 2.15 0 00.82-.2V9.2a1 1 0 01-.75.39 1.07 1.07 0 01-1.09-1.06v-.11a1.14 1.14 0 011.05-1.2 1.06 1.06 0 01.79.39v-.78a1.48 1.48 0 00-.79-.2 1.66 1.66 0 00-1.73 1.58v.17zM8 8c-.37-.16-.48-.23-.48-.43a.42.42 0 01.45-.39.77.77 0 01.52.28L8.78 7a1.44 1.44 0 00-.94-.39 1 1 0 00-1 .93.89.89 0 00.79.93 3 3 0 01.45.2.39.39 0 01.17.33.49.49 0 01-.45.5.73.73 0 01-.68-.46l-.41.43a1.27 1.27 0 001.12.66 1.08 1.08 0 001.13-1V9c0-.47-.23-.7-1-1zm-2.22 2.1h.64V6.64h-.64v3.46zm-1.27-.86a1.14 1.14 0 01-.87.27h-.18V7.22h.18a1.18 1.18 0 01.87.27 1.23 1.23 0 01.33.86 1.26 1.26 0 01-.33.89zm-.75-2.6h-.94v3.46h.94a1.64 1.64 0 001.16-.39 1.85 1.85 0 00.6-1.32 1.67 1.67 0 00-1.58-1.75zm9.78-.08a1.74 1.74 0 00-1.72 1.78 1.8 1.8 0 001.72 1.82 1.75 1.75 0 001.76-1.74 1.81 1.81 0 00-1.76-1.82z" fill="#fff"/></svg>

<svg id="Visa" xmlns="http://www.w3.org/2000/svg" width="26" height="16" viewBox="0 0 26 16"><title>icon-discover-small</title><rect width="26" height="16" rx="2" ry="2" style="fill:#f19e0c"/><path d="M21.64,8.23h-.19V7.18h.19a.5.5,0,0,1,.59.39.37.37,0,0,1,0,.11.53.53,0,0,1-.47.56Zm1.27-.58a1,1,0,0,0-.93-1,.86.86,0,0,0-.23,0h-.94V10.1h.64V8.7h.07l.86,1.4h.79l-1-1.45a.93.93,0,0,0,.75-1h0ZM18.6,10.1h1.8V9.51H19.24V8.58h1.12V8H19.24V7.22H20.4V6.64H18.6V10.1ZM16.73,9l-.86-2.33h-.68l1.39,3.53h.33L18.3,6.64h-.67L16.73,9ZM9.12,8.39a1.75,1.75,0,0,0,1.69,1.79,2.15,2.15,0,0,0,.82-.2V9.2a1,1,0,0,1-.75.39A1.07,1.07,0,0,1,9.79,8.53V8.42a1.14,1.14,0,0,1,1.05-1.2,1.06,1.06,0,0,1,.79.39V6.83a1.48,1.48,0,0,0-.79-.2A1.66,1.66,0,0,0,9.11,8.21v.17h0ZM8,8c-.37-.16-.48-.23-.48-.43a.42.42,0,0,1,.45-.39h0a.77.77,0,0,1,.52.28L8.78,7a1.44,1.44,0,0,0-.94-.39,1,1,0,0,0-1,.93v0a.89.89,0,0,0,.79.93,3,3,0,0,1,.45.2A.39.39,0,0,1,8.25,9a.49.49,0,0,1-.45.5h0a.73.73,0,0,1-.68-.46l-.41.43a1.27,1.27,0,0,0,1.12.66,1.08,1.08,0,0,0,1.13-1V9c0-.47-.23-.7-1-1ZM5.78,10.1h.64V6.64H5.78V10.1ZM4.51,9.24a1.14,1.14,0,0,1-.87.27H3.46V7.22h.18a1.18,1.18,0,0,1,.87.27,1.23,1.23,0,0,1,.33.86,1.26,1.26,0,0,1-.33.89Zm-.75-2.6H2.82V10.1h.94a1.64,1.64,0,0,0,1.16-.39,1.85,1.85,0,0,0,.6-1.32A1.67,1.67,0,0,0,3.94,6.64Zm9.78-.08a1.74,1.74,0,0,0-1.72,1.78h0a1.8,1.8,0,0,0,1.72,1.82A1.75,1.75,0,0,0,15.3,8.42v0a1.81,1.81,0,0,0-1.76-1.82Z" style="fill:#fff"/></svg>
